X:1
T:Dinky's Reel
R:Reel
M:C|
%%printtempo 0
Q:180
K:D
ed|\
"A"cdBc ABcd|egfd edBd|"G"gB (3.B.B.B gBaB|gB (3.B.B.B gfed|
"A"cdBc ABcd|egfd edBd|"G"gB (3.B.B.B "D"efed|"E"cdBc "A"A2:|
e^g|\
"A"aA (3.A.A.A aAbA|aA (3.A.A.A agef|"G"gB (3.B.B.B gBaB|gB (3.B.B.B gefg|
"A"aA (3.A.A.A aAbA|aA (3.A.A.A agef|"G"gfge "D"dfed|"E"cdBc "A"A2 e^g||
"A"aA (3.A.A.A aAbA|aA (3.A.A.A agef|"G"gB (3.B.B.B gBaB|gB (3.B.B.B gefg|
"A"aA (3.A.A.A "G"gB (3.A.A.A|"D"fA (3.A.A.A "A"e2 ef "G"gfge "D"dfed|"E"cdBc "A"A2|]
